X: 141
T: Cantantibus organis – Allegretto
C: Franciszek Walczyński
%%abc-version 2.0
%%abcx-abcm2ps-target-version 5.9.1 (29 Sep 2008)
%%abc-creator hum2abc beta
%%abcx-conversion-date 2021/10/04 07:38:41
%%abc-edited-by Kamil Watkowski
%%abcx-initial-encoding-date 2021-08-09
%%humdrum-veritas 195466579
%%humdrum-veritas-data 4085121963
%%linebreak <none>
%%barnumbers 0
L: 1/8
M: 3/4
N: Derived from pl-kozmzk--mzk-m-346--043_walczynski-franciszek--cantantibus-organis-allegretto.krn
%%staves {1 2}
V: 1 clef=treble
V: 2 clef=bass
K: Bb
[V:1] GABded | 
[V:2] z6 | 
[V:1] ^c4d=c | 
[V:2] z BAG^F2 | 
[V:1] B=Bc_BAG | 
[V:2] G=FED^C2 | 
[V:1] ^F4dc | 
[V:2] DEDCB,A, | 
[V:1] BAGdgf | 
[V:2] G,A,B,2=B,2 | 
[V:1] edcBAG | 
[V:2] CDE4 | 
[V:1] BAGBA^F | 
[V:2] DCB,D CA, | 
[V:1] G2z2z2 | 
[V:2] B,CB,A,G,B, | 
[V:1] z6 | 
[V:2] A,^F,D,E,D,C, | 
[V:1] dBG_AGF | 
[V:2] B,,2=B,,4 | 
[V:1] EDCDCB, | 
[V:2] C,D,E,2=E,2 | 
[V:1] A,B,CEDC | 
[V:2] F,G,A,G,^F,2 | 
[V:1] B,CDF=ED | 
[V:2] G,A,B,A,^G,2 | 
[V:1] ^CD=EGFE | 
[V:2] A,=B,^C_B,A,G, | 
[V:1] D_EDCB,A, | 
[V:2] ^F,2D,2=E,F, | 
[V:1] B, zz2z2 | 
[V:2] G,A,B,DED | 
[V:1] z BAGF=E | 
[V:2] ^C2A,2=B,C | 
[V:1] F^FGAB=B | 
[V:2] D=CB,^F,G,=F, | 
[V:1] cdfecA | 
[V:2] E,D,=B,,C,E,2 | 
[V:1] BAGBA^F | 
[V:2] D,CB,G,CD | 
[V:1] GABded | 
[V:2] E2DB,CD | 
[V:1] G2z2z2 | 
[V:2] EDB,A,G,B, | 
[V:1] z6 | 
[V:2] _A,F,D,E,D,C, | 
[V:1] _AFDEDC | 
[V:2] =B,,2F,2_A,2 | 
[V:1] =B,4CE | 
[V:2] G,_A,G,F,E,C, | 
[V:1] BG=EGE^C | 
[V:2] ^C,=E,G,B,G,E, | 
[V:1] DB,G,B,^F,A, | 
[V:2] D,2^C,2=C,2 | 
[V:1] G,2z2z2 | 
[V:2] B,,C,B,,A,,G,,F,, | 
[V:1] G,A,B,DED | 
[V:2] E,,2D,,2C,,D,, | 
[V:1] G,2!accent!^F,3D, | 
[V:2] G,,6- | 
[V:1] =F,2!accent!=E,3C, | 
[V:2] G,,6- | 
[V:1] _E,2!accent!D,3A,, | 
[V:2] G,,6 | 
[V:1] C,2B,,2D,2 | 
[V:2] G,,6- | 
[V:1] G,, zz2z2 | 
[V:2] G,,A,,B,,D,E,D, | 
[V:1] !fermata!z6 |]  
[V:2] !fermata!G,,6 |]  


